svg/sftp.svg

<?xml version="1.0" encoding="UTF-8"?>
<svg xmlns="http://www.w3.org/2000/svg" xmlns:xlink="http://www.w3.org/1999/xlink" width="37.827" height="32" viewBox="0 0 37.827 32">
<path fill-rule="nonzero" fill="rgb(0%, 0%, 0%)" fill-opacity="1" d="M 6.636719 14.550781 L 8.546875 14.429688 C 8.566406 14.683594 8.65625 14.929688 8.800781 15.136719 C 9.015625 15.402344 9.347656 15.550781 9.6875 15.53125 C 9.925781 15.546875 10.160156 15.476562 10.347656 15.332031 C 10.492188 15.21875 10.578125 15.046875 10.582031 14.863281 C 10.578125 14.6875 10.5 14.519531 10.363281 14.40625 C 10.050781 14.210938 9.699219 14.082031 9.335938 14.03125 C 8.652344 13.921875 8.007812 13.648438 7.453125 13.238281 C 7.082031 12.929688 6.871094 12.46875 6.882812 11.984375 C 6.882812 11.648438 6.984375 11.316406 7.175781 11.039062 C 7.390625 10.722656 7.695312 10.476562 8.050781 10.335938 C 8.5625 10.144531 9.105469 10.058594 9.648438 10.082031 C 10.316406 10.039062 10.980469 10.199219 11.550781 10.546875 C 12.011719 10.902344 12.296875 11.441406 12.328125 12.023438 L 10.4375 12.136719 C 10.414062 11.894531 10.308594 11.664062 10.132812 11.492188 C 9.941406 11.347656 9.703125 11.277344 9.464844 11.292969 C 9.277344 11.277344 9.089844 11.328125 8.933594 11.4375 C 8.820312 11.523438 8.753906 11.660156 8.753906 11.800781 C 8.757812 11.910156 8.8125 12.011719 8.898438 12.078125 C 9.101562 12.207031 9.332031 12.289062 9.570312 12.320312 C 10.21875 12.4375 10.851562 12.628906 11.457031 12.894531 C 11.796875 13.050781 12.085938 13.304688 12.289062 13.617188 C 12.460938 13.910156 12.550781 14.242188 12.546875 14.582031 C 12.550781 14.992188 12.429688 15.394531 12.203125 15.738281 C 11.964844 16.09375 11.628906 16.371094 11.234375 16.539062 C 10.734375 16.734375 10.203125 16.828125 9.667969 16.8125 C 8.5625 16.8125 7.792969 16.59375 7.371094 16.171875 C 6.941406 15.734375 6.683594 15.160156 6.644531 14.546875 Z M 2.792969 4.8125 L 3.742188 4.8125 L 3.742188 2.523438 C 3.742188 2.210938 3.996094 1.953125 4.308594 1.949219 L 5.332031 1.949219 L 5.332031 0.574219 C 5.332031 0.421875 5.394531 0.273438 5.503906 0.164062 C 5.617188 0.0585938 5.765625 0 5.917969 0 L 15.257812 0 C 15.578125 0 15.835938 0.257812 15.835938 0.574219 L 15.835938 1.949219 L 34.152344 1.949219 C 34.46875 1.949219 34.726562 2.207031 34.726562 2.523438 L 34.726562 4.8125 L 35.777344 4.8125 C 36.09375 4.8125 36.351562 5.070312 36.351562 5.386719 C 36.359375 5.429688 36.359375 5.472656 36.351562 5.511719 L 34.328125 20.316406 C 34.265625 20.789062 34.046875 21.230469 33.710938 21.570312 C 33.386719 21.902344 32.945312 22.089844 32.480469 22.089844 L 21.316406 22.089844 L 21.316406 23.804688 L 21.371094 23.804688 C 21.824219 23.808594 22.1875 24.175781 22.1875 24.628906 L 22.1875 26.109375 L 26.191406 26.109375 C 26.546875 26.109375 26.863281 26.34375 26.972656 26.683594 L 35.542969 26.683594 C 36.46875 26.640625 37.320312 27.195312 37.652344 28.0625 C 37.769531 28.355469 37.828125 28.667969 37.828125 28.984375 C 37.828125 29.300781 37.769531 29.617188 37.652344 29.910156 C 37.316406 30.773438 36.46875 31.328125 35.542969 31.285156 L 27.007812 31.285156 C 26.960938 31.703125 26.609375 32.015625 26.191406 32.015625 L 12.289062 32.015625 C 11.871094 32.015625 11.519531 31.703125 11.472656 31.285156 L 2.285156 31.285156 C 1.355469 31.328125 0.503906 30.765625 0.175781 29.894531 C -0.0625 29.304688 -0.0625 28.640625 0.175781 28.046875 C 0.507812 27.183594 1.359375 26.628906 2.285156 26.667969 L 11.519531 26.667969 C 11.628906 26.328125 11.941406 26.097656 12.300781 26.09375 L 15.601562 26.09375 L 15.601562 24.628906 C 15.601562 24.175781 15.96875 23.808594 16.421875 23.808594 L 16.726562 23.808594 L 16.726562 22.085938 L 5.542969 22.085938 C 5.0625 22.089844 4.605469 21.894531 4.277344 21.546875 C 3.945312 21.207031 3.742188 20.765625 3.695312 20.292969 L 2.128906 5.445312 C 2.113281 5.292969 2.160156 5.140625 2.253906 5.023438 C 2.351562 4.90625 2.492188 4.832031 2.640625 4.816406 L 2.792969 4.816406 Z M 17.8125 23.800781 L 20.230469 23.800781 L 20.230469 22.109375 L 17.8125 22.109375 Z M 27.011719 27.765625 L 27.011719 30.183594 L 35.542969 30.183594 C 36.015625 30.207031 36.453125 29.929688 36.632812 29.492188 C 36.695312 29.328125 36.730469 29.152344 36.726562 28.972656 C 36.726562 28.796875 36.695312 28.621094 36.632812 28.460938 C 36.453125 28.015625 36.007812 27.738281 35.53125 27.765625 Z M 11.46875 30.183594 L 11.46875 27.765625 L 2.285156 27.765625 C 1.804688 27.738281 1.363281 28.015625 1.183594 28.460938 C 1.054688 28.792969 1.054688 29.160156 1.183594 29.492188 C 1.363281 29.933594 1.804688 30.210938 2.285156 30.183594 Z M 3.339844 5.960938 L 4.828125 20.175781 C 4.847656 20.390625 4.9375 20.589844 5.085938 20.75 C 5.207031 20.867188 5.371094 20.933594 5.542969 20.933594 L 32.488281 20.933594 C 32.652344 20.929688 32.804688 20.863281 32.921875 20.75 C 33.078125 20.585938 33.171875 20.378906 33.195312 20.15625 L 35.128906 5.960938 Z M 4.894531 3.101562 L 4.894531 4.808594 L 33.574219 4.566406 L 33.574219 3.101562 L 15.257812 3.101562 C 15.101562 3.101562 14.957031 3.042969 14.847656 2.933594 C 14.738281 2.824219 14.679688 2.675781 14.679688 2.523438 L 14.679688 1.152344 L 6.496094 1.152344 L 6.496094 2.523438 C 6.492188 2.839844 6.234375 3.097656 5.917969 3.101562 Z M 13.605469 10.179688 L 18.578125 10.179688 L 18.578125 11.578125 L 15.625 11.578125 L 15.625 12.714844 L 18.164062 12.714844 L 18.164062 14.035156 L 15.625 14.035156 L 15.625 16.6875 L 13.605469 16.6875 Z M 19.253906 10.179688 L 25.371094 10.179688 L 25.371094 11.789062 L 23.320312 11.789062 L 23.320312 16.703125 L 21.308594 16.703125 L 21.308594 11.800781 L 19.253906 11.800781 Z M 26.3125 10.179688 L 29.660156 10.179688 C 30.253906 10.132812 30.839844 10.320312 31.296875 10.699219 C 31.679688 11.09375 31.878906 11.628906 31.84375 12.179688 C 31.878906 12.753906 31.660156 13.3125 31.25 13.71875 C 30.851562 14.09375 30.246094 14.28125 29.4375 14.277344 L 28.320312 14.277344 L 28.320312 16.683594 L 26.3125 16.683594 Z M 28.332031 12.949219 L 28.828125 12.949219 C 29.117188 12.980469 29.410156 12.90625 29.652344 12.746094 C 29.808594 12.621094 29.894531 12.429688 29.886719 12.230469 C 29.894531 12.035156 29.820312 11.847656 29.683594 11.710938 C 29.464844 11.539062 29.1875 11.460938 28.910156 11.496094 L 28.320312 11.496094 L 28.320312 12.949219 Z M 28.332031 12.949219 "/>
</svg>

<svg role="img" viewBox="0 0 37.827 32" height="32" width="37.827" xmlns="http://www.w3.org/2000/svg"><path d="m6.637 14.55 1.91-.12c.02.254.11.5.254.707.215.265.547.414.886.394a.975.975 0 0 0 .66-.199.612.612 0 0 0 .235-.469.61.61 0 0 0-.219-.457 2.631 2.631 0 0 0-1.027-.375 4.313 4.313 0 0 1-1.883-.793 1.58 1.58 0 0 1-.57-1.254c0-.336.101-.668.293-.945.215-.316.52-.562.875-.703a4.059 4.059 0 0 1 1.597-.254 3.25 3.25 0 0 1 1.903.465c.46.355.746.894.777 1.476l-1.89.114a1.041 1.041 0 0 0-.305-.645 1.002 1.002 0 0 0-.668-.199.808.808 0 0 0-.531.145.459.459 0 0 0-.18.363.37.37 0 0 0 .144.277c.204.129.434.211.672.242a8.42 8.42 0 0 1 1.887.575c.34.156.629.41.832.722.172.293.262.625.258.965.004.41-.117.813-.344 1.156a2.203 2.203 0 0 1-.969.801c-.5.195-1.03.29-1.566.273-1.105 0-1.875-.218-2.297-.64a2.546 2.546 0 0 1-.726-1.625ZM2.793 4.814h.95v-2.29c0-.312.253-.57.566-.574h1.023V.574c0-.152.063-.3.172-.41A.61.61 0 0 1 5.918 0h9.34c.32 0 .578.258.578.574V1.95h18.316c.317 0 .575.258.575.574v2.29h1.05c.317 0 .575.257.575.574a.336.336 0 0 1 0 .125l-2.024 14.804a2.199 2.199 0 0 1-.617 1.254c-.324.332-.766.52-1.23.52H21.315v1.715h.055a.823.823 0 0 1 .817.824v1.48h4.003c.356 0 .672.235.782.575h8.57a2.152 2.152 0 0 1 2.11 1.378c.117.293.175.606.175.922a2.5 2.5 0 0 1-.176.926 2.157 2.157 0 0 1-2.109 1.375h-8.535a.82.82 0 0 1-.817.73h-13.9a.82.82 0 0 1-.816-.73H2.285a2.15 2.15 0 0 1-2.11-1.39 2.477 2.477 0 0 1 0-1.848 2.166 2.166 0 0 1 2.11-1.379h9.235a.825.825 0 0 1 .78-.574h3.302V24.63a.82.82 0 0 1 .82-.82h.305v-1.723H5.543a1.718 1.718 0 0 1-1.266-.54 2.084 2.084 0 0 1-.582-1.253L2.13 5.445a.583.583 0 0 1 .125-.422.586.586 0 0 1 .387-.207h.152ZM17.813 23.8h2.417v-1.692h-2.418Zm9.199 3.965v2.418h8.531a1.12 1.12 0 0 0 1.09-.692c.062-.164.097-.34.094-.52 0-.175-.032-.35-.094-.511a1.118 1.118 0 0 0-1.102-.695Zm-15.543 2.418v-2.418H2.285c-.48-.028-.922.25-1.101.695-.13.332-.13.7 0 1.031.18.442.62.719 1.101.692ZM3.339 5.96l1.49 14.215a.97.97 0 0 0 .257.574.657.657 0 0 0 .457.184h26.945a.643.643 0 0 0 .434-.184c.156-.164.25-.371.273-.594L35.13 5.961ZM4.896 3.1v1.71l28.68-.243V3.102H15.257a.573.573 0 0 1-.578-.579v-1.37H6.496v1.37a.587.587 0 0 1-.578.579Zm8.71 7.079h4.973v1.398h-2.953v1.137h2.54v1.32h-2.54v2.653h-2.02Zm5.649 0h6.117v1.61h-2.05v4.913H21.31V11.8h-2.055Zm7.058 0h3.348c.594-.047 1.18.14 1.637.52.383.394.582.929.547 1.48a1.99 1.99 0 0 1-.594 1.539c-.398.375-1.004.562-1.812.558H28.32v2.407h-2.008Zm2.02 2.77h.496c.29.03.582-.044.824-.204a.628.628 0 0 0 .235-.516.68.68 0 0 0-.203-.52 1.022 1.022 0 0 0-.774-.214h-.59v1.453Zm0 0"/></svg>
